assets/Person zombie/Flat/person_zombie_flat.svg

<svg width="32" height="32" viewBox="0 0 32 32" fill="none" xmlns="http://www.w3.org/2000/svg">
<path d="M16.0001 20.5312C12.5594 20.5312 9.60938 21.6719 7.20312 23.8156V29.9062H24.7344V23.8156C22.3281 21.6719 19.4408 20.5312 16.0001 20.5312Z" fill="#1C1C1C"/>
<rect x="13.5" y="17" width="5" height="7.32812" rx="2.5" fill="#0074BA"/>
<path d="M7.13272 8.64838C7.44882 6.80792 8.67172 6.29691 9.5311 6.10941C10.2646 5.94937 10.6131 6.082 11.2576 5.43747C12.7826 3.91247 13.6549 3.98743 14.203 4.06244C15.6874 4.26556 16.5076 3.95309 16.5076 3.95309C17.0936 2.37497 18.3666 2.0544 19.742 2.05444C21.5156 2.0545 21.4671 2.95116 21.0389 3.24201C19.9916 3.95334 19.742 4.51529 19.742 4.51529C19.892 4.65279 20.3409 4.96878 20.6014 5.09379C20.787 5.18291 21.192 5.13598 22.0545 5.21098C23.1501 5.30625 24.4451 6.3899 24.8748 7.06254C25.2342 7.62514 24.7107 7.92191 24.4451 8.00004C24.1795 8.07816 23.9842 8.07035 23.9842 8.07035H23.6639C23.9217 8.55473 23.8678 9.75043 23.617 10.2969C23.3982 10.7735 23.0902 11.5549 23.0779 11.9843C23.0467 13.0781 23.0404 15.3625 23.0154 16.625C22.9904 17.8875 22.1951 18.9532 21.3435 19.2968C18.4112 19.4322 12.1997 19.563 10.8904 19.2968C9.50762 19.0157 9.10397 17.6198 9.03106 16.9375C8.96335 15.2552 8.92756 11.6262 8.7421 11.0234C8.57298 10.4737 8.38224 10.6645 8.23674 10.81L8.23425 10.8125C7.55717 11.4219 6.69529 11.1953 7.13272 8.64838Z" fill="#321B41"/>
<path d="M10 16.1719C11.1046 16.1719 12 15.2764 12 14.1719C12 13.0673 11.1046 12.1719 10 12.1719C8.89543 12.1719 8 13.0673 8 14.1719C8 15.2764 8.89543 16.1719 10 16.1719Z" fill="#00D1ED"/>
<path d="M22 16.1719C23.1046 16.1719 24 15.2764 24 14.1719C24 13.0673 23.1046 12.1719 22 12.1719C20.8954 12.1719 20 13.0673 20 14.1719C20 15.2764 20.8954 16.1719 22 16.1719Z" fill="#00D1ED"/>
<path d="M10.0886 17.6616C9.9502 16.0834 9.75 11.5678 9.75 11.5678C9.75 7.67726 12.5052 6.92721 14.46 7.0053C15.352 7.04094 16.1133 7.09693 16.307 7.67718C16.7918 9.13031 18.585 9.13031 20.4321 9.13031C21.8147 9.13031 22.2806 10.439 22.2485 11.0991C22.1664 12.7866 21.9776 16.4616 21.879 17.6616C21.7805 18.8616 20.6387 21.057 18.893 21.6303C18.0556 21.9053 14.6139 21.9116 13.1671 21.6303C11.5808 21.3219 10.227 19.2397 10.0886 17.6616Z" fill="#37C9CD"/>
<path d="M13.375 15.5938C14.4105 15.5938 15.25 14.7543 15.25 13.7188C15.25 12.6832 14.4105 11.8438 13.375 11.8438C12.3395 11.8438 11.5 12.6832 11.5 13.7188C11.5 14.7543 12.3395 15.5938 13.375 15.5938Z" fill="#321B41"/>
<path d="M18.875 15.75C19.9105 15.75 20.75 14.9105 20.75 13.875C20.75 13.7385 20.7354 13.6055 20.7077 13.4773C20.5253 12.6328 19.7741 12 18.875 12C17.8395 12 17 12.8395 17 13.875C17 14.9105 17.8395 15.75 18.875 15.75Z" fill="#321B41"/>
<path d="M13.6094 15.1875C14.5068 15.1875 15.2344 14.46 15.2344 13.5625C15.2344 12.665 14.5068 11.9375 13.6094 11.9375C12.7119 11.9375 11.9844 12.665 11.9844 13.5625C11.9844 14.46 12.7119 15.1875 13.6094 15.1875Z" fill="#FFCE7C"/>
<path d="M18.625 15.1875C19.5225 15.1875 20.25 14.46 20.25 13.5625C20.25 12.665 19.5225 11.9375 18.625 11.9375C17.7275 11.9375 17 12.665 17 13.5625C17 14.46 17.7275 15.1875 18.625 15.1875Z" fill="#FFCE7C"/>
<path d="M13.5312 14.1172C13.8764 14.1172 14.1562 13.8374 14.1562 13.4922C14.1562 13.147 13.8764 12.8672 13.5312 12.8672C13.1861 12.8672 12.9062 13.147 12.9062 13.4922C12.9062 13.8374 13.1861 14.1172 13.5312 14.1172Z" fill="#990838"/>
<path d="M18.457 14.1172C18.8022 14.1172 19.082 13.8374 19.082 13.4922C19.082 13.147 18.8022 12.8672 18.457 12.8672C18.1119 12.8672 17.832 13.147 17.832 13.4922C17.832 13.8374 18.1119 14.1172 18.457 14.1172Z" fill="#990838"/>
<path d="M14.0469 19.875H16.8906C16.8906 17.775 15.0312 17.5625 14.0469 17.5625C13.5312 17.5625 12.8906 17.8219 12.8906 18.7344C12.8906 19.6469 13.6615 19.875 14.0469 19.875Z" fill="black"/>
<path d="M17 13.3272C17 12.5 17.9376 11.8438 18.8404 11.8438C19.7432 11.8438 20.4976 12.4792 20.6807 13.3272H17Z" fill="#37C9CD"/>
<path d="M16.4406 18.4219H14.5C14.2239 18.4219 14 18.198 14 17.9219V17.5632C14.0157 17.5627 14.0314 17.5625 14.0469 17.5625C14.7278 17.5625 15.8273 17.6642 16.4406 18.4219Z" fill="#FFCE7C"/>
<path d="M20.482 11.0278C20.4201 11.1115 20.321 11.1474 20.2096 11.1474C20.1353 11.1474 20.0734 11.1355 20.0115 11.0757C20.0115 11.0757 20.0033 11.0714 19.9906 11.0637C19.8626 10.9861 19.1602 10.5603 18.1913 10.6691C18.0055 10.693 17.8322 10.5615 17.8198 10.3821C17.795 10.2028 17.9312 10.0473 18.117 10.0234C19.4172 9.87363 20.3152 10.4896 20.4125 10.5563C20.4162 10.5589 20.4201 10.5615 20.4201 10.5615C20.5687 10.6811 20.5935 10.8843 20.482 11.0278Z" fill="#321B41"/>
<path d="M11.5068 11.0278C11.5687 11.1115 11.6677 11.1474 11.7792 11.1474C11.8535 11.1474 11.9154 11.1355 11.9773 11.0757C11.9773 11.0757 11.9855 11.0714 11.9981 11.0637C12.1262 10.9861 12.8286 10.5603 13.7975 10.6691C13.9832 10.693 14.1566 10.5615 14.169 10.3821C14.1937 10.2028 14.0575 10.0473 13.8718 10.0234C12.5716 9.87363 11.6736 10.4896 11.5763 10.5563C11.5726 10.5589 11.5687 10.5615 11.5687 10.5615C11.4201 10.6811 11.3953 10.8843 11.5068 11.0278Z" fill="#321B41"/>
<path d="M22.0001 15.8C21.9936 15.9119 21.9847 16.0686 21.9783 16.1754C21.9439 16.2104 21.8989 16.2357 21.8471 16.2457C21.4954 16.3131 21.1086 16.4915 20.8037 16.9364C20.4937 17.3886 20.2508 18.1413 20.2508 19.3907C20.2508 19.5287 20.1389 19.6407 20.0008 19.6407C19.8628 19.6407 19.7508 19.5287 19.7508 19.3907C19.7508 18.0841 20.0037 17.219 20.3913 16.6536C20.7839 16.0809 21.2968 15.842 21.753 15.7546C21.8486 15.7363 21.9442 15.728 22.0001 15.8Z" fill="#00A6ED"/>
<path d="M9.99099 16.2715C9.98091 16.1062 9.97082 15.9352 9.96078 15.7607C10.3445 15.8128 10.8146 15.9596 11.2267 16.3497C11.7841 16.8776 12.1876 17.8046 12.1876 19.3907C12.1876 19.5287 12.0757 19.6407 11.9376 19.6407C11.7995 19.6407 11.6876 19.5287 11.6876 19.3907C11.6876 17.8829 11.3046 17.1121 10.8829 16.7128C10.6007 16.4456 10.2798 16.3242 9.99099 16.2715Z" fill="#00A6ED"/>
<path d="M10.6875 23.1719V25.875C10.6875 26.2656 10.7172 27.0156 11.6172 26.8906C12.4453 26.6875 14.157 26.4988 14.25 27.7344C14.3113 28.5481 13.5391 28.7031 12.5938 28.6406C12.0169 28.6025 11.6016 28.8672 11.1719 29.2656C10.7264 29.6787 9.76302 29.9062 9.41406 29.9062H6C5.32812 29.9062 4.78125 29.5 4.26562 28.7656C4.22387 28.699 4.17597 28.6217 4.12475 28.5391C3.90765 28.1888 3.63077 27.7421 3.50781 27.6016C3.42031 27.5016 2.98438 27.0781 2.78125 26.8906L3.22656 24.7969L4.26562 25.5781L4.5625 25.4062L4.98438 22.5781L6.25 24.375L6.53125 24.1875L7.64062 21.6875L8.26562 23.1094C8.33594 23.25 8.52656 23.3844 8.66406 23.1719C8.73438 23.0632 8.73438 22.4219 8.73438 22.0469L10.6875 23.1719Z" fill="#00A6ED"/>
<path d="M21.2925 23.1719V25.875C21.2925 26.2656 21.2628 27.0156 20.3628 26.8906C19.5347 26.6875 17.823 26.4988 17.73 27.7344C17.6687 28.5481 18.4409 28.7031 19.3862 28.6406C19.9631 28.6025 20.3784 28.8672 20.8081 29.2656C21.2536 29.6787 22.217 29.9062 22.5659 29.9062H25.98C26.6519 29.9062 27.1987 29.5 27.7144 28.7656C27.7561 28.699 27.804 28.6217 27.8552 28.5391C28.0723 28.1888 28.3492 27.7421 28.4722 27.6016C28.5597 27.5016 28.9956 27.0781 29.1987 26.8906L28.7534 24.7969L27.7144 25.5781L27.4175 25.4062L26.9956 22.5781L25.73 24.375L25.4487 24.1875L24.3394 21.6875L23.7144 23.1094C23.644 23.25 23.4534 23.3844 23.3159 23.1719C23.2456 23.0632 23.2456 22.4219 23.2456 22.0469L21.2925 23.1719Z" fill="#00A6ED"/>
<path d="M22.2628 20.8936C22.8073 20.8936 23.2488 21.335 23.2488 21.8795V23.5636C23.2488 24.1081 22.8073 24.5495 22.2628 24.5495C21.7183 24.5495 21.2769 24.1081 21.2769 23.5636V21.8795C21.2769 21.335 21.7183 20.8936 22.2628 20.8936Z" fill="#37C9CD"/>
<path d="M25.5252 21.1897C26.0454 21.353 26.3347 21.907 26.1714 22.4272L25.6622 24.0488C25.4989 24.569 24.9449 24.8582 24.4247 24.6949C23.9046 24.5316 23.6153 23.9776 23.7786 23.4574L24.2877 21.8358C24.451 21.3156 25.0051 21.0264 25.5252 21.1897Z" fill="#37C9CD"/>
<path d="M28.2377 22.3558C28.7183 22.635 28.8816 23.2509 28.6023 23.7315L27.7679 25.1679C27.4886 25.6485 26.8727 25.8117 26.3921 25.5325C25.9115 25.2533 25.7482 24.6373 26.0275 24.1567L26.8619 22.7204C27.1412 22.2398 27.7571 22.0765 28.2377 22.3558Z" fill="#37C9CD"/>
<path d="M30.0611 26.094C30.3516 25.6624 30.2372 25.077 29.8056 24.7865C29.374 24.4959 28.7885 24.6103 28.498 25.042L28.0302 25.7369C27.7397 26.1686 27.8541 26.754 28.2857 27.0445C28.7174 27.3351 29.3028 27.2207 29.5933 26.789L30.0611 26.094Z" fill="#37C9CD"/>
<path d="M5.80863 22.4272C5.64532 21.907 5.93461 21.353 6.45476 21.1897C6.97492 21.0264 7.52897 21.3156 7.69227 21.8358L8.20139 23.4574C8.36469 23.9776 8.07541 24.5316 7.55525 24.6949C7.0351 24.8582 6.48105 24.569 6.31774 24.0488L5.80863 22.4272Z" fill="#37C9CD"/>
<path d="M3.74227 22.3558C3.26167 22.635 3.09842 23.2509 3.37764 23.7315L4.21213 25.1679C4.49135 25.6485 5.1073 25.8117 5.5879 25.5325C6.06849 25.2533 6.23174 24.6373 5.95253 24.1567L5.11804 22.7204C4.83882 22.2398 4.22287 22.0765 3.74227 22.3558Z" fill="#37C9CD"/>
<path d="M1.91887 26.094C1.62834 25.6624 1.74273 25.077 2.17437 24.7865C2.60601 24.4959 3.19144 24.6103 3.48197 25.042L3.94975 25.7369C4.24027 26.1686 4.12588 26.754 3.69424 27.0445C3.2626 27.3351 2.67717 27.2207 2.38664 26.789L1.91887 26.094Z" fill="#37C9CD"/>
<path d="M9.71716 20.8936C9.17263 20.8936 8.7312 21.335 8.7312 21.8795V23.5636C8.7312 24.1081 9.17263 24.5495 9.71716 24.5495C10.2617 24.5495 10.7031 24.1081 10.7031 23.5636V21.8795C10.7031 21.335 10.2617 20.8936 9.71716 20.8936Z" fill="#37C9CD"/>
<path d="M15.5009 13.6123L14.8326 15.8603C14.6884 16.318 15.0291 16.7891 15.5009 16.7891H16.5098C16.9816 16.7891 17.3223 16.318 17.1781 15.8603L16.4967 13.6123C16.3395 13.1143 15.6581 13.1143 15.5009 13.6123Z" fill="#00A6ED"/>
<path d="M14.0469 19.875H16.8906C16.8906 17.775 15.0312 17.5625 14.0469 17.5625C13.5312 17.5625 12.8906 17.8219 12.8906 18.7344C12.8906 19.6469 13.6615 19.875 14.0469 19.875Z" fill="black"/>
<path d="M16.4406 18.4219H14.5C14.2239 18.4219 14 18.198 14 17.9219V17.5632C14.0157 17.5627 14.0314 17.5625 14.0469 17.5625C14.7278 17.5625 15.8273 17.6642 16.4406 18.4219Z" fill="#FFCE7C"/>
<path d="M15.4772 13.6182L14.7846 15.8344C14.6352 16.2855 14.9883 16.75 15.4772 16.75H16.5228C17.0117 16.75 17.3648 16.2855 17.2154 15.8344L16.5092 13.6182C16.3463 13.1273 15.6401 13.1273 15.4772 13.6182Z" fill="#00A6ED"/>
</svg>

<svg xmlns="http://www.w3.org/2000/svg" width="32" height="32" fill="none"><path fill="#1C1C1C" d="M16 20.531c-3.44 0-6.39 1.14-8.797 3.285v6.09h17.531v-6.09C22.328 21.672 19.441 20.53 16 20.53Z"/><rect width="5" height="7.328" x="13.5" y="17" fill="#0074BA" rx="2.5"/><path fill="#321B41" d="M7.133 8.648c.316-1.84 1.539-2.351 2.398-2.539.734-.16 1.082-.027 1.727-.672 1.525-1.525 2.397-1.45 2.945-1.375 1.484.204 2.305-.109 2.305-.109.586-1.578 1.859-1.899 3.234-1.899 1.774 0 1.725.897 1.297 1.188-1.047.711-1.297 1.273-1.297 1.273.15.138.599.454.86.579.185.089.59.042 1.453.117 1.095.095 2.39 1.179 2.82 1.852.36.562-.164.859-.43.937-.265.078-.46.07-.46.07h-.321c.258.485.204 1.68-.047 2.227-.219.476-.527 1.258-.54 1.687-.03 1.094-.037 3.379-.062 4.641s-.82 2.328-1.672 2.672c-2.932.135-9.143.266-10.453 0-1.382-.281-1.786-1.677-1.859-2.36-.068-1.682-.103-5.31-.289-5.914-.169-.55-.36-.358-.505-.213l-.003.002c-.677.61-1.539.383-1.101-2.164Z"/><path fill="#00D1ED" d="M10 16.172a2 2 0 1 0 0-4 2 2 0 0 0 0 4ZM22 16.172a2 2 0 1 0 0-4 2 2 0 0 0 0 4Z"/><path fill="#37C9CD" d="M10.089 17.662c-.139-1.579-.339-6.094-.339-6.094 0-3.89 2.755-4.64 4.71-4.563.892.036 1.653.092 1.847.672.485 1.453 2.278 1.453 4.125 1.453 1.383 0 1.849 1.309 1.817 1.97-.083 1.687-.271 5.362-.37 6.562-.099 1.2-1.24 3.395-2.986 3.968-.837.275-4.28.282-5.726 0-1.586-.308-2.94-2.39-3.078-3.968Z"/><path fill="#321B41" d="M13.375 15.594a1.875 1.875 0 1 0 0-3.75 1.875 1.875 0 0 0 0 3.75ZM18.875 15.75a1.875 1.875 0 1 0 0-3.75 1.875 1.875 0 0 0 0 3.75Z"/><path fill="#FFCE7C" d="M13.61 15.188a1.625 1.625 0 1 0 0-3.25 1.625 1.625 0 0 0 0 3.25ZM18.625 15.188a1.625 1.625 0 1 0 0-3.25 1.625 1.625 0 0 0 0 3.25Z"/><path fill="#990838" d="M13.531 14.117a.625.625 0 1 0 0-1.25.625.625 0 0 0 0 1.25ZM18.457 14.117a.625.625 0 1 0 0-1.25.625.625 0 0 0 0 1.25Z"/><path fill="#000" d="M14.047 19.875h2.844c0-2.1-1.86-2.313-2.844-2.313-.516 0-1.156.26-1.156 1.172 0 .913.77 1.141 1.156 1.141Z"/><path fill="#37C9CD" d="M17 13.327c0-.827.938-1.483 1.84-1.483.903 0 1.658.635 1.84 1.483H17Z"/><path fill="#FFCE7C" d="M16.44 18.422H14.5a.5.5 0 0 1-.5-.5v-.359h.047c.68 0 1.78.101 2.394.859Z"/><path fill="#321B41" d="M20.482 11.028c-.062.083-.161.12-.272.12-.075 0-.137-.012-.198-.072l-.021-.012a2.89 2.89 0 0 0-1.8-.395c-.185.024-.359-.107-.371-.287-.025-.18.111-.335.297-.359 1.3-.15 2.198.467 2.296.533a.331.331 0 0 1 .07.471ZM11.507 11.028c.062.083.16.12.272.12.075 0 .136-.012.198-.072l.021-.012c.128-.078.83-.504 1.8-.395.185.024.359-.107.371-.287.025-.18-.112-.335-.297-.359-1.3-.15-2.198.467-2.296.533l-.007.006a.331.331 0 0 0-.062.466Z"/><path fill="#00A6ED" d="m22 15.8-.022.375a.25.25 0 0 1-.13.07 1.582 1.582 0 0 0-1.044.691c-.31.453-.553 1.205-.553 2.455a.25.25 0 0 1-.5 0c0-1.307.253-2.172.64-2.737a2.081 2.081 0 0 1 1.362-.9c.096-.018.191-.026.247.046ZM9.991 16.271l-.03-.51c.383.052.854.199 1.266.589.557.528.96 1.455.96 3.04a.25.25 0 0 1-.5 0c0-1.507-.382-2.278-.804-2.677a1.72 1.72 0 0 0-.892-.442ZM10.688 23.172v2.703c0 .39.03 1.14.93 1.016.827-.203 2.539-.392 2.632.843.061.814-.71.97-1.656.907-.577-.038-.992.226-1.422.625-.446.413-1.409.64-1.758.64H6c-.672 0-1.219-.406-1.734-1.14l-.141-.227c-.217-.35-.494-.797-.617-.937a18.58 18.58 0 0 0-.727-.711l.446-2.094 1.039.781.296-.172.422-2.828 1.266 1.797.281-.188 1.11-2.5.625 1.422c.07.141.26.275.398.063.07-.109.07-.75.07-1.125l1.954 1.125ZM21.293 23.172v2.703c0 .39-.03 1.14-.93 1.016-.828-.203-2.54-.392-2.633.843-.061.814.71.97 1.656.907.577-.038.992.226 1.422.625.446.413 1.409.64 1.758.64h3.414c.672 0 1.219-.406 1.734-1.14l.141-.227c.217-.35.494-.797.617-.937.088-.1.524-.524.727-.711l-.446-2.094-1.039.781-.296-.172-.422-2.828-1.266 1.797-.281-.188-1.11-2.5-.625 1.422c-.07.141-.26.275-.398.063-.07-.109-.07-.75-.07-1.125l-1.953 1.125Z"/><path fill="#37C9CD" d="M22.263 20.894c.544 0 .986.441.986.986v1.684a.986.986 0 0 1-1.972 0V21.88c0-.545.441-.986.986-.986ZM25.525 21.19c.52.163.81.717.646 1.237l-.509 1.622a.987.987 0 1 1-1.883-.592l.509-1.621a.987.987 0 0 1 1.237-.646ZM28.238 22.356c.48.279.644.895.364 1.375l-.834 1.437a1.006 1.006 0 0 1-1.74-1.011l.834-1.437c.28-.48.895-.643 1.376-.364ZM30.061 26.094a.942.942 0 1 0-1.563-1.052l-.468.695a.942.942 0 0 0 1.563 1.052l.468-.695ZM5.809 22.427a.987.987 0 1 1 1.883-.591l.51 1.621a.987.987 0 1 1-1.884.592l-.51-1.622ZM3.742 22.356c-.48.279-.644.895-.364 1.375l.834 1.437a1.006 1.006 0 0 0 1.74-1.011l-.834-1.437a1.006 1.006 0 0 0-1.376-.364ZM1.919 26.094a.942.942 0 1 1 1.563-1.052l.468.695a.942.942 0 1 1-1.563 1.052l-.468-.695ZM9.717 20.894a.986.986 0 0 0-.986.986v1.684a.986.986 0 0 0 1.972 0V21.88a.986.986 0 0 0-.986-.986Z"/><path fill="#00A6ED" d="m15.5 13.612-.667 2.248a.713.713 0 0 0 .668.93h1.009a.713.713 0 0 0 .668-.93l-.681-2.248a.519.519 0 0 0-.996 0Z"/><path fill="#000" d="M14.047 19.875h2.844c0-2.1-1.86-2.313-2.844-2.313-.516 0-1.156.26-1.156 1.172 0 .913.77 1.141 1.156 1.141Z"/><path fill="#FFCE7C" d="M16.44 18.422H14.5a.5.5 0 0 1-.5-.5v-.359h.047c.68 0 1.78.101 2.394.859Z"/><path fill="#00A6ED" d="m15.477 13.618-.692 2.216c-.15.451.203.916.692.916h1.046c.489 0 .842-.465.692-.916l-.706-2.216c-.163-.49-.869-.49-1.032 0Z"/></svg>
